!!!OTL: 1414. Kriegers Abschied vom Lieb.
!!!ARE: Europa, Mitteleuropa, Deutschland, Hessen, Odenwald; Taunus
!!!SCT: E1414A
!!!TXL: @@DE
!!!YEM: Copyright 1995, estate of Helmut Schaffrath.
**kern	**text
*ICvox	*
*M3/8	*
*k[f#]	*
*G:	*
=1	=1
!LO:TX:a:t=Aus dem Odenwald (Neunkirchen) 1845 u. Taunus 1877.	!
{8dL	Mäd-
8gJ	.
8g	-chen
=2	=2
8gL	mei-
8bJ	.
8dd	-ner
=3	=3
8bL	See-
8aJ	.
8a}	-le,
=4	=4
{8aL	bald
8bJ	.
8cc	ver-
=5	=5
4dd	-laß
8cc	ich
=6	=6
4b	dich;
8r}	.
=7	=7
{4g	und
8b/	du
=8	=8
4b	bleibſt
8dd	auf
=9	=9
8ddL	e-
8ccJ	.
8cc}	-wig,
=10	=10
{4a	und
8cc	du
=11	=11
8ccL	bleibſt
8ddJ	.
8ee	auf
=12	=12
(8eeL	e-
8ddJ)	.
8cc}	-wig
=13	=13
{4b	un-
16bL	-ver-
16ccJ	.
=14	=14
4dd	-än-
16ddL	-der-
16ccJ	.
=15	=15
4b	-lich.
8r}	.
=16	=16
{4g	und
8b/	du
=17	=17
4b	bleibſt
8dd	auf
=18	=18
8ddL	e-
8ccJ	.
8cc}	-wig,
=19	=19
{4a	und
8cc	du
=20	=20
8ccL	bleibſt
8ddJ	.
8ee	auf
=21	=21
(8eeL	e-
8ddJ)	.
8cc}	-wig
=22	=22
{4b	un-
16bL	-ver-
16ccJ	.
=23	=23
4dd	-än-
16ddL	-der-
16ccJ	.
=24	=24
4b	-lich.
8r}	.
==	==
!!!AGN: Staende -, Soldaten - Lied, Krieg, Abschied
!!!ONB: ESAC (Essen Associative Code) Database: ERK3
!!!AMT: simple triple
!!!AIN: vox
!!!EED: Helmut Schaffrath
!!!EEV: 1.0
!!!GTL: Staendelieder (Berufslieder). 1. Soldaten- und Kriegslieder. Soldatenlieder seit dem 30jaehr. Kriege.
!!!URL-scan: https://rosdok.uni-rostock.de/mcrviewer/recordIdentifier/rosdok_ppn745177999/iview2/phys_0280.iview2?x=-128.77276441889308&y=1625.674576274585&scale=0.5870222003877485&rotation=0&layout=singlePageLayout
!!!ENC: Anna Maria Matuszewska
!!!EEV: 2024/12/31
*-	*-
